X:26
T:The Fowers of Edingburgh
F:http://www.vwml.org/record/Yarkers1797/5234/p26
Z:Transcribed by David Jacobs Jan 2016
L:1/8
M:C
K:G
G|D3EG3A|BG dGB2AG | F3e DEFG | AFdF E3G | D3EG3A|BGBd efge | d2cBA2GA | B2G4:|
d2|gfga b2ag|fefga2gf | e^def gfe^d | B2e2e2dc | BAGd2cB|(3efg (3fga gfe|d2cBA2GA|B2G3:|]

